/* XPM */
static char *result[] = {
/* columns rows colors chars-per-pixel */
"40 40 55 1 ",
"  c black",
". c #4F2913",
"X c #522B15",
"o c #552F18",
"O c #563018",
"+ c #5A331B",
"@ c #5E381E",
"# c #5E3921",
"$ c #623C22",
"% c #654127",
"& c #66432A",
"* c #69452B",
"= c #6C492E",
"- c #664530",
"; c #674831",
": c #6D4C31",
"> c #674F3A",
", c #704F32",
"< c #735436",
"1 c #765638",
"2 c #76593A",
"3 c #795C3D",
"4 c #7C613F",
"5 c #6D5843",
"6 c #7D5F40",
"7 c #715F49",
"8 c #7E6242",
"9 c #74634D",
"0 c #7C634C",
"q c #766751",
"w c #796A54",
"e c #816645",
"r c #836847",
"t c #866B4A",
"y c #896E4C",
"u c #8A714E",
"i c #836B56",
"p c #856E5A",
"a c #8D7451",
"s c #86715A",
"d c #88735D",
"f c #907753",
"g c #927A56",
"h c #947D59",
"j c #8C7863",
"k c #97815C",
"l c #99825E",
"z c #9B8561",
"x c #94846E",
"c c #978974",
"v c #998874",
"b c #9E8F7A",
"n c #9E907B",
"m c #9A8F80",
"M c #999182",
/* pixels */
"                                        ",
" nxx#yyyryuyyyttyytytyytry0tyttytrt*xxv ",
" b*;iaaaaaaafaaafaaaufaffffffffffffu&&v ",
" ;0r+O+O+oo+OOO+@$$$%$@+++++++OO+O+O8e; ",
" hrrOfuy6$$ehgfhayytyyuggughkt*@3ghO8eg ",
" httO@=4ff6$$e31<111<<111<1u*@3flleO3ra ",
" hrtOy=@1yrt6$$6fauuyugggy=@1fklg:$Ottg ",
" htt@hhy=+<yrye$#8ghggha:@<yalk1@3g@trg ",
" hyy$yyyar=@<reye$#egf,+:tahh3+3fhh$yrg ",
" kyy%333366y=@<rtyt$##1ergh6@<113ee$ayh ",
" huu%ateryfhgr=@1y1+$1ygle+:ufreeea$ayh ",
" kuu$aeteryhhfhr+#,eyghe++rhhfrerry=yah ",
" kuu%ye366ertg3+$ryfha$$3,+1fhyeeya*aul ",
" hau$ee88ert1#*rffha$+$yrrr,+,e6eeg$aal ",
" kaa$hhhhg6#$etfhf:#ey$#1ytry1@,ahh$aaz ",
" haa@hhh8$$6tuhh1#efhhhy=$3yfhf1@:y#ayz ",
" hfu+he$$8auhl3+1yetyyyyte=$3hhhg1$+ual ",
" hff+$$4gfhl8+,1111131311131$$6hhhg+ruz ",
" huf+3euhzu$=uurrereerrryyyefy$$3gh+aul ",
" hfu+fygu$=uhhfffffyrryyafyahhhy*ah+uah ",
" &aa++@$@@@@$$%%$$$$$$$$+++++o+oOOOOua- ",
" v;-yruaafffffffffghhhffyyyyyyyttytr--c ",
" MMM%llllllzlzzlhhzhhhhhhhghhgfhggg*MmM ",
" q9qX614e8eeerrryyyryryyeteeeeeeee0Xwww ",
" 79.2448e888ee8reeeerrrreeeeee6ee884o99 ",
" >.3238888ee88ereere8r8eeee6668644844X5 ",
" X83..o++++OOOOOOo@**$+oXXXXXooo@34.44. ",
" 333o,8te6=%1ahayyyrryghhhfe**yhlu,o442 ",
" 224.a2%=8ee1=%1e83316gg8=%1agf3%:r.424 ",
" 423Xgafy1%:3re1**1yae=$,yhg6,=6ttfX442 ",
" 423X22211gt,%,6rr,+@%6ghy,$3t31224X224 ",
" 222Xuerrahhhhr*$$,3ugf1$*rhgaayt0u.222 ",
" 222.ayyagghf6$*18aay,,31%%<ygga222.<<< ",
" 222X63hhge**1eyfg8:3;%3yye1*%2aggg.<<< ",
" k08Ofar,$6aftfy:1ahhhg6=%2err8<=3fO0eg ",
" :ttX@++$$$$$$+$$###$$$$$$@@@$$#$$+Orr: ",
" d;u2136633336366368386666833488668et;p ",
" j0:8ggafggggggghggggghhhghghhggggg6*ij ",
" dds#336663666623366623323333323233$ssp ",
"                                        "
};
