/* XPM */
static char *result[] = {
/* columns rows colors chars-per-pixel */
"40 40 26 1 ",
"  c black",
". c #00685A",
"X c #00695A",
"o c #BE2358",
"O c #BE2359",
"+ c #BE2459",
"@ c #BF2459",
"# c #EB3F5E",
"$ c #EB405E",
"% c #EB405F",
"& c #EC405F",
"* c #FF6161",
"= c #FF6262",
"- c #008A5F",
"; c #00A25A",
": c #00A35A",
"> c #00A35B",
", c #008A60",
"< c #008B60",
"1 c #00C642",
"2 c #00C742",
"3 c #00C743",
"4 c #67E652",
"5 c #67E752",
"6 c #68E752",
"7 c #68E753",
/* pixels */
";;;;;;;;;;;;;;;;;;;;;;;;;;;;;;;;;;;;;;;;",
";;;;;;;;;;;;;;;;;;;;;;;;;;;;;;;;;;;;;;;;",
";;;;;;;;;;;;;;;;;;;;;;;;;;;;;;;;;;;;;;;;",
";;;;;;;;;;;;;;;;;;;;;;;;;;;;;;;;;;;;;;;;",
";;;;;>>;>;;;>;;>;;;>>;;;>>;;>>;;>;>>;;;;",
";;;;;;>;;;;>33:>>1>;>11;>>>;>>>;>>;;;;;;",
";;;;;:;:;;>;>31>11;;>>31>:;;>>;;;>;;;;;;",
";;;;;;>>:>;>;>>;1>;;; ;>;>;;;>;;>;;>;;;;",
";;;;;:>>>;13;;>;>;;: > ;>,,>;>,,,;>;;;;;",
";;;;;31;;13>>>;>;>;> ; ;>X3,>-11,>;>;;;;",
";;;;>;31>;>>;>;;>;; ;, ;,,;2-111X;>;;;;;",
";;;;>>;:;;>:;>>>;;> : ;-31;;.;3;X;;>;;;;",
";;;;>>;;>;>:>;;;> ; < >-,>>..;>.>;;;;;;;",
";;;;>;;;>>;>>>;; 1  <   >>>;;>;;;>:;;;;;",
";;;;;>>>;>;>;;   62>,-31   ;;>:;:;;;;;;;",
";;;;;;>;;>;;  OOOO61<,;11OO  ;;;;11;;;;;",
";;;;>>;>;;; OOOoOO@3>>;>;;&&& ;>11>;;;;;",
";;;;;;;;>> @OOoO111>;>1476==$& >>;>>;;;;",
";;;;;>>;>; OOO%&&;;1411@OO===% ;;>>;;;;;",
";;;;;;;;> OOO%$&&%%&&511%&===&% ;>>>;;;;",
";;;;:;;;; OOO#%&$&&&&&61%%$===# >;>;;;;;",
";;;;;>>;> O+@&%&&&&$%&#6&%&%==& ;;>;;;;;",
";;;;>;;;> OO+&&&#%&$&&&&&&%&&=& ;>;;;;;;",
";;;;;;3;> O@O&&%&&&$%%$&&&%&$&& ;>;>;;;;",
";;;;;;31; O@o&&&%&&%&&%%%%&%&%% ;>;;;;;;",
";;;;>;;1> @OOO&&&&%&%&&#&&&%=&& ;;>;;;;;",
";;;;;>>>>; Oo+O&&&&&&&&&%&#%*& ;31;:;;;;",
";;;;>;;>;: OOO@&$&&&%&$&&$$==$ 11>>>;;;;",
";;;;>;;>>;; +Ooo&&&%&%&&&%=%& ;;;>>>;;;;",
";;;;>;;;;>;<  Oo@OO&&&$&%%&  ;;;>;;>;;;;",
";;;;;>><-<,31.   +O@OoOo   ;;;;:>;>>;;;;",
";;;;:;,11;.2>X>;>       >;>>;:>;;;;;;;;;",
";;;;;>,,>3.;.>>;;;;;>>>>>;>;;;>;>;>>:>;;",
";;;;;>>>;;>>;>:;;;>>>;;>;>;>;;>>;>>>;>;;",
";;;;;;;;;;;>>>;;>>;>;:>;>>>:;>>:;;;>>>;;",
";;;;>;;;>>>;:>;>>>>;>;>;;;>;>;>>;;;>->;;",
";;;;;;;;;;;;;;31;;13>;;;;;;,<>1.1;XX.;;;",
";;;;;;;;;;;;;>;31>;>>;;;;;;;>>>>;>;:>;;;",
";;;;;;;;;;;;;>>;:;;>:;;;;;;>>:>>>>>>>>;;",
";;;;;;;;;;;;;;;;;;;;;;;;;;;;;;;;;;;;;;;;"
};
