/* XPM */
static char *result[] = {
/* columns rows colors chars-per-pixel */
"40 40 173 2 ",
"   c black",
".  c #000100",
"X  c #010100",
"o  c #000101",
"O  c #010101",
"+  c #020000",
"@  c #020001",
"#  c #010300",
"$  c #000201",
"%  c #010201",
"&  c #000102",
"*  c #010102",
"=  c #000103",
"-  c #000202",
";  c gray1",
":  c #050100",
">  c #070000",
",  c #070001",
"<  c #070002",
"1  c #020305",
"2  c #030506",
"3  c #040404",
"4  c #080001",
"5  c #090001",
"6  c #090203",
"7  c #070A05",
"8  c #00060A",
"9  c #090B0B",
"0  c #0C0A0B",
"q  c #0C0F0F",
"w  c #140001",
"e  c #130405",
"r  c #101707",
"t  c #111807",
"y  c #0D1213",
"u  c #121516",
"i  c #13191A",
"p  c #14191A",
"a  c #14191B",
"s  c #171C1E",
"d  c #34060C",
"f  c #211A0F",
"g  c #200C11",
"h  c #1A260B",
"j  c #1D2A0C",
"k  c #202A13",
"l  c #48050F",
"z  c #490A14",
"x  c #661C28",
"c  c #3C4F24",
"v  c #43611C",
"b  c #47671F",
"n  c #476421",
"m  c #00685A",
"M  c #00695A",
"N  c #DD0B2A",
"B  c #DB0F2B",
"V  c #E30A29",
"C  c #E30A2A",
"Z  c #E30B2A",
"A  c #E20B2B",
"S  c #E40A2A",
"D  c #E50A2A",
"F  c #E40B2A",
"G  c #E50B2B",
"H  c #E30C2A",
"J  c #E40C2B",
"K  c #E50C2B",
"L  c #E40D2B",
"P  c #E30D2D",
"I  c #E60D2C",
"U  c #E90F2F",
"Y  c #E4122F",
"T  c #EE1333",
"R  c #EE1535",
"E  c #EF1636",
"W  c #E71837",
"Q  c #EF1937",
"!  c #E41C38",
"~  c #EA1939",
"^  c #F11636",
"/  c #F11637",
"(  c #F11737",
")  c #F21636",
"_  c #F31637",
"`  c #F21737",
"'  c #F31737",
"]  c #F01837",
"[  c #F31837",
"{  c #F11738",
"}  c #F31638",
"|  c #F21738",
" . c #F31738",
".. c #F31739",
"X. c #F1153B",
"o. c #F31838",
"O. c #F31839",
"+. c #F31939",
"@. c #F3183A",
"#. c #F31A3A",
"$. c #F21B3B",
"%. c #F31D3D",
"&. c #F01E3D",
"*. c #F21F3E",
"=. c #C9253E",
"-. c #DF2945",
";. c #D63A52",
":. c #F22543",
">. c #F52547",
",. c #F52847",
"<. c #F72948",
"1. c #F22C4A",
"2. c #F92C4A",
"3. c #F92C4B",
"4. c #F82D4B",
"5. c #FB2D4B",
"6. c #F82D4C",
"7. c #F92D4C",
"8. c #FA2D4C",
"9. c #FB2D4C",
"0. c #FA2D4D",
"q. c #F82E4C",
"w. c #F92E4C",
"e. c #F82E4D",
"r. c #F92E4D",
"t. c #F82F4D",
"y. c #F92F4D",
"u. c #FA2E4D",
"i. c #FB2E4D",
"p. c #FA2F4D",
"a. c #FA2E4E",
"s. c #FA2E4F",
"d. c #FC2E4E",
"f. c #F3304E",
"g. c #F7324F",
"h. c #F9314F",
"j. c #F32E51",
"k. c #F83350",
"l. c #FA3553",
"z. c #F83653",
"x. c #F93754",
"c. c #F93955",
"v. c #FA3956",
"b. c #F94761",
"n. c #74A732",
"m. c #79A73C",
"M. c #008A5F",
"N. c #00A25A",
"B. c #00A35A",
"V. c #00A35B",
"C. c #008A60",
"Z. c #008B60",
"A. c #00C642",
"S. c #00C743",
"D. c #83BC37",
"F. c #8CB752",
"G. c #96C952",
"H. c #98CA57",
"J. c #9BCA5B",
"K. c #9BCC58",
"L. c #9BCC59",
"P. c #9CCD59",
"I. c #9DCE5B",
"U. c #9ECF5C",
"Y. c #9ECF5D",
"T. c #A0CE5C",
"R. c #A0D25D",
"E. c #A1D061",
"W. c #F88C9B",
"Q. c #F88E9A",
"!. c #F88E9B",
"~. c #F98D9C",
"^. c #FCEF8D",
/* pixels */
"N.N.N.N.N.N.N.N.N.N.N.N.N.N.N.N.N.N.N.N.N.N.N.N.N.N.N.N.N.N.N.N.N.N.N.N.N.N.N.N.",
"N.N.N.N.N.N.N.N.N.N.N.N.N.N.N.N.N.N.N.N.N.N.N.N.N.N.N.N.N.N.N.N.N.N.N.N.N.N.N.N.",
"N.N.N.N.N.N.N.N.N.N.N.N.N.N.N.N.N.N.N.N.N.N.N.N.N.N.N.N.N.N.N.N.N.N.N.N.N.N.N.N.",
"N.N.N.N.N.N.N.N.N.N.N.N.N.N.N.N.N.N.N.N.N.N.N.N.N.N.N.N.N.N.N.N.N.N.N.N.N.N.N.N.",
"N.N.N.N.N.V.V.N.V.N.N.N.V.N.N.V.N.N.N.V.V.N.N.N.V.V.N.N.V.V.N.N.V.N.V.V.N.N.N.N.",
"N.N.N.N.N.N.V.N.N.N.N.V.S.S.B.V.V.A.V.N.V.A.A.N.V.V.V.N.V.V.V.N.V.V.N.N.N.N.N.N.",
"N.N.N.N.N.B.N.B.N.N.V.N.V.S.A.V.A.A.N.& 2   S.A.V.8 N.N.V.V.N.N.N.V.N.N.N.N.N.N.",
"N.N.N.N.N.N.V.V.B.V.N.V.N.V.V.N.A.V.+ h D.v & V.t D.+ N.N.V.N.N.V.N.N.V.N.N.N.N.",
"N.N.N.N.N.B.V.V.V.N.A.S.N.N.V.  p a + k K.D.n.  D.L.D.i N.V.C.C.C.N.V.N.N.N.N.N.",
"N.N.N.N.N.S.A.N.N.A.S.V.V.  ;.7.a.s.x * D.U.R.b D.U.D.; 1 = & + C.V.N.V.N.N.N.N.",
"N.N.N.N.V.N.S.A.V.N.V.V.  t.w.w.w.# v D.D.Y.U.U.U.U.D.  U.U.U.D.. N.V.N.N.N.N.N.",
"N.N.N.N.V.V.N.B.N.N.V.  t.t.w.w.  v D.D.P.U.U.D.v v F.v U.I.D.  M N.N.V.N.N.N.N.",
"N.N.N.N.V.V.N.N.V.N.V.  5.w.^.t.w.: o $ - c U.T.D.3 v U.G.D.X m V.N.N.N.N.N.N.N.",
"N.N.N.N.V.N.N.N.V.V.  t.8.w.t.1.w.F F F + m.U.E.J.D.D.U.D.j   N.N.V.B.N.N.N.N.N.",
"N.N.N.N.N.V.V.V.N.V.9 t.t.z.6.w.w.w.w.F + D.U.D.D.U.U.U.D.v + + B.N.N.N.N.N.N.N.",
"N.N.N.N.N.N.V.N.N.V.9 t.0.t.~.c.w.^.F F + D.D.7 r D.U.U.v D.D.v u A.A.N.N.N.N.N.",
"N.N.N.N.V.V.N.V.N.  t.t.t.~.~.t.b.F =.-.+ v v + r D.U.U.+ v n v o A.V.N.N.N.N.N.",
"N.N.N.N.N.N.N.N.V.  y.y.W.~.~.~.t.p.p.p.w.e e F f v H.+ F + + + q N.V.V.N.N.N.N.",
"N.N.N.N.N.V.V.N.V.% y.r.W.~.~.~.t.8.y.6.6.y.F r.y.+ v + F F F + N.V.V.N.N.N.N.N.",
"N.N.N.N.N.N.N.N.V.d y.y.W.~.~.~.t.t.k.w.w.F ^.w.w.y.+ ( R F F F @ V.V.V.N.N.N.N.",
"N.N.N.N.B.N.N.N.  Q 4.p.Q.!.~.v.g.e.w.r.w.w.w.w.w.d.` ` R Z B F + N.V.N.N.N.N.N.",
"N.N.N.N.N.V.V.N.  Q F y.9.~.~.l.w.F y.p.r.w.w.w.y.F ` ` R N ^.F + N.V.N.N.N.N.N.",
"N.N.N.N.V.N.N.N.  Q ^.F i.w.w.6.w.^.F w.w.w.w.w.F ^.` ` R F F F + V.N.N.N.N.N.N.",
"N.N.N.N.N.N.S.N.  ] 2.u.w.w.r.w.w.w.r.r.j.f.r.,.' ' ' ' E F F F 0 V.N.V.N.N.N.N.",
"N.N.N.N.N.N.S.  F ` ` w.x.h.w.w.w.w.w.q.^.F >.` ` | ` ^ I V F + N.V.N.N.N.N.N.N.",
"N.N.N.N.V.N.N.  F ` ` ~.~.w.w.w.q.w.w.<...*.` ` ` { T S F F J + N.N.V.N.N.N.N.N.",
"N.N.N.N.N.V.V.  F +.o.` ~.w.3.7.^.X.[ [ @.[ [ [ | ~ ^.K F F y N.S.A.N.B.N.N.N.N.",
"N.N.N.N.V.N.N.  F $.o.*.:.%.#.#.W  .' +.O.' ' ' ^ P F G F g V.A.A.V.V.V.N.N.N.N.",
"N.N.N.N.V.N.N.  F F / ..` | ` ` ` ` ` ` .._ ' S S A Z Y + V.N.N.N.V.V.V.N.N.N.N.",
"N.N.N.N.V.N.N.N.  F ^ O.| ` ` ^ ` ` ` ( | F ^.F F F F 6 N.N.N.N.V.N.N.V.N.N.N.N.",
"N.N.N.N.N.V.V.Z.  F F ^.} ` ` ) &.` U S F F F F F w + N.N.N.N.B.V.N.V.V.N.N.N.N.",
"N.N.N.N.B.N.C.A.A.O F J D F F ! C ^.F F F F F   s N.V.V.N.B.V.N.N.N.N.N.N.N.N.N.",
"N.N.N.N.N.V.C.C.V.S.z l H F L F V F F F + + + V.V.N.N.N.N.N.N.V.V.N.N.B.B.V.N.N.",
"N.N.N.N.N.V.V.V.N.N.V.V.> 5 4 , , < < + V.N.N.V.N.V.V.N.N.V.V.B.V.M.C.V.N.V.N.N.",
"N.N.N.N.N.N.N.N.N.N.N.V.V.N.N.V.V.B.V.N.V.B.V.N.V.V.V.V.C.Z.M.N.C.A.S.Z.V.V.N.N.",
"N.N.N.N.V.N.N.N.V.V.V.N.B.N.B.V.V.V.N.A.S.N.V.N.N.N.N.Z.A.A.V.m A.A.A.A.M.V.N.N.",
"N.N.N.N.N.N.N.N.N.N.N.N.N.N.S.A.N.N.A.S.V.N.N.N.N.N.N.C.Z.V.A.m A.N.M M m N.N.N.",
"N.N.N.N.N.N.N.N.N.N.N.N.N.V.N.S.A.V.N.V.V.N.N.N.N.N.N.N.V.V.V.V.N.V.N.B.V.N.N.N.",
"N.N.N.N.N.N.N.N.N.N.N.N.N.V.V.N.B.N.N.V.B.N.N.N.N.N.N.V.V.B.V.V.V.V.V.V.V.V.N.N.",
"N.N.N.N.N.N.N.N.N.N.N.N.N.N.N.N.N.N.N.N.N.N.N.N.N.N.N.N.N.N.N.N.N.N.N.N.N.N.N.N."
};
