/* XPM */
static char *result[] = {
/* columns rows colors chars-per-pixel */
"40 40 45 1 ",
"  c black",
". c #632E02",
"X c #642E03",
"o c #642F03",
"O c #774117",
"+ c #784117",
"@ c #784118",
"# c #784218",
"$ c #00685A",
"% c #00695A",
"& c #A1161D",
"* c #A1161E",
"= c #A1171E",
"- c #A2171E",
"; c #AD1B1E",
": c #AD1B1F",
"> c #AD1C1F",
", c #AE1C1F",
"< c #C83539",
"1 c #C9353A",
"2 c #C9363A",
"3 c #875127",
"4 c #885128",
"5 c #885228",
"6 c #E23E45",
"7 c #E23F45",
"8 c #E23F46",
"9 c #E33F46",
"0 c #008A5F",
"q c #00A25A",
"w c #00A35A",
"e c #00A35B",
"r c #008A60",
"t c #008B60",
"y c #00C642",
"u c #00C743",
"i c #EED96B",
"p c #EFD96B",
"a c #EFD96C",
"s c #FFEF88",
"d c #99B4E0",
"f c #99B5E1",
"g c #9AB5E1",
"h c #C5DDF3",
"j c #C6DDF4",
/* pixels */
"qqqqqqqqqqqqqqqqqqqqqqqqqqqqqqqqqqqqqqqq",
"qqqqqqqqqqqqqqqqqqqqqqqqqqqqqqqqqqqqqqqq",
"qqqqqqqqqqqqqqqqqqqqqqqqqqqqqqqqqqqqqqqq",
"qqqqqqqqqqqqqqqqqqq  qqqqqqqqqqqqqqqqqqq",
"qqqqqeeqeqqqeqqeq  --  qeeqqeeqqeqeeqqqq",
"qqqqqqeqqqqeuuw  &-79*&  eeqeeeqeeqqqqqq",
"qqqqqwqwqqeqe  -&1<7911*-  qeeqqqeqqqqqq",
"qqqqqqeeweq  --::1<781<>;--  eqqeqqeqqqq",
"qqqqqweee  -&11::<<9911::11-&  rrqeqqqqq",
"qqqqquy  &-9,1<::1199<1;>12:9&-  eqeqqqq",
"qqqqe  =-<19;1<;:<19711:>1<:6<<--  qqqqq",
"qqqq -&:;<19:11::<1881<:,<<:7<2:>** qqqq",
"qqq -16::118:<<;>119911;:11>9<1::61- qqq",
"qqq -<6;>1<9:1<;,11>>1<>:11;71<::91- qqq",
"qqq =19::1<9:<<::::--;>;;11:811;:6<* qqq",
"qqq &19:;1<8,1<::&-  -&:;11:7<<::6<* qqq",
"qqq -17>:1<9:::&&  pp  -=;>,91<>:71- qqq",
"qqq *17::1<>:-&  XoasoX  -*:;11::71- qqq",
"qqq &19:>:>-*              &-::;:91* qqq",
"qqq =17;:-*  *&--*=--====-&  =*>;91- qqq",
"qqq -::&=  &=67869988899777&=  *-:>= qqq",
"qqqq --   -111<1111<<1<11<1<1-   =- qqqq",
"qqqq   XoO &-,:>;::;>,>::>:-- +..   qqqq",
"qqqq XoO+O   --*-=-&*=&---*   +OOo. qqqq",
"qqqq X4iO+ 5O              3+ O+i3X qqqq",
"qqqq X3s+O 3OXX ffXfdXfdX o3O +Os3o qqqq",
"qqqq o5++O 3Oo+ fhoghofhX .3O OO+3X qqqq",
"qqqq X3+OO 3OX@ dhofhodho .3+ #+O3o qqqq",
"qqqq X3++O 4+oO djodhXgho X3+ OOO3o qqqq",
"qqqq .3OO+ 5Oo+ oooXooXXX o3O OO+3X qqqq",
"qqqq o4+O+ 5O.O +oXoo.X.. X3O OO+3o qqqq",
"qqqq X3O+O 4#o+ o.ooooX.X o3O +OO3. qqqq",
"qqqqq oO++ 3+o+ ..XXooooo o3O +O+. eweqq",
"qqqqqe oXO+@O+OO         +O+OO+oX eeqeqq",
"qqqqqqq  XXo++OO++O+OO+O++++Xoo  qqeeeqq",
"qqqqeqqqe   Xo.ooooXoXoXXXXX   eqqqe0eqq",
"qqqqqqqqqqqq                tey$yq%%$qqq",
"qqqqqqqqqqqqqequyeqeeqqqqqqqeeeeqeqweqqq",
"qqqqqqqqqqqqqeeqwqqewqqqqqqeeweeeeeeeeqq",
"qqqqqqqqqqqqqqqqqqqqqqqqqqqqqqqqqqqqqqqq"
};
