/* XPM */
static char *bf1bae833a9d40548740fb3be79d781dUnxagMJrrvmctp2O[] = {
/* columns rows colors chars-per-pixel */
"32 32 24 1 ",
"  c #1F102A",
". c #18685B",
"X c #614841",
"o c #785F58",
"O c #4C5966",
"+ c #856645",
"@ c #9E7E5A",
"# c #917972",
"$ c #30A15F",
"% c #1F8962",
"& c #5AC54F",
"* c #B3946F",
"= c #BD9F79",
"- c #334F9E",
"; c #647382",
": c #4662B5",
"> c #5972BD",
", c #5B5BEC",
"< c #8094A8",
"1 c gray74",
"2 c #D1B48E",
"3 c #F5D6AB",
"4 c gray83",
"5 c white",
/* pixels */
"$$$$$$$$$$$$$$$$++++++$$$$$$$$$$",
"$$$$$$$X&&$$$&$+======+$$$$$$$$$",
"$$$$XXX<X&&$&++========++$$$$$$$",
"$$XXX<X;X$$$+*@========@*+$$$$$$",
"$$X<X;X;X$$+*@==========@*+%$$$$",
"$&X;X;X;;X+**@*========*@**+$$$$",
"$$X;X;;X;X+=*@*========*@*=+$$$$",
"$$X;;X;X;+==*@*========*@*==+$$$",
"$$$X;X;X;+==*+@*======*@+*==+$$$",
"$$$X;X;;;O+==*+@******@+*==+$$$$",
"$$$X;;;;;O+===*+@@@@@@+*===+$$$$",
"$$$XO;;;OOX+===*++++++*===+X$&&$",
"$$$$XOOOoXXX+===******===+XX&&$$",
"$$$$$XXX#X$XX+++======+++XX$$$$$",
"$$$$$$$XooXX3XXX++++++XXX3X$$$$$",
"$$$$$$$$XoX$X333  33  333X$$$$$$",
"$$$$$$&$Xo#XX233,533,5332X$$$$$$",
"$$$$$&&$$XoX11233333333214X$$$$$",
"$$$$$&$$$Xo#X14223333221455X$$$$",
"$$&$$$$$%XX#X45>422224>5555X$$$$",
"$$&&$$$$%X5XX45>54==45>5554X$$$$",
"$$$&$$$$X4533X4>>5555>>4551X$$$$",
"$$$$$$$$X14XXX>>>>>>>>>>41X$&&$$",
"$$$$$$$$$XXX#X:>>>>>>>>:1X$&&$$$",
"$$$$$$$$$$$XoX::::::::::X$$$$$$$",
"$$$$$$$%%%$Xo#X:::--:::X$$$$$$$$",
"$$$%%%%&&.$$XoX:::--:::X$$$$$$$$",
"$$%&&$.&$.$$XoX-:----:-X$$$$$$$$",
"$$%%$&.$.$$$XoX--XXXX--X$$$$$$$$",
"$$$$$$$$$$$$$XoX+X$$X++X$$$$$$$$",
"$$$$$$$$$$$$$XoX+X$$X++X$$$$$$$$",
"$$$$$$$$$$$$$$XXX$$$$XX$$$$$$$$$"
};
