/* XPM */
static char *a2e8ff2d762d441da170e0dad52ec92ch2YKWPFSCoaUycK5[] = {
/* columns rows colors chars-per-pixel */
"40 40 39 1 ",
"  c #040505",
". c gray2",
"X c #040604",
"o c #050604",
"O c #090908",
"+ c #090909",
"@ c #232417",
"# c #232418",
"$ c #00685A",
"% c #00695A",
"& c #5A594E",
"* c #625945",
"= c #625A45",
"- c #7D5945",
"; c #7D5A45",
": c #7A6B4A",
"> c #7A6C4A",
", c #997448",
"< c #977765",
"1 c #977865",
"2 c #008A5F",
"3 c #00A25A",
"4 c #00A35A",
"5 c #00A35B",
"6 c #008A60",
"7 c #008B60",
"8 c #40916D",
"9 c #40926D",
"0 c #408570",
"q c #408670",
"w c #40A361",
"e c #40A461",
"r c #00C642",
"t c #00C743",
"y c #93866E",
"u c #93876E",
"i c #CBBB9F",
"p c #CBBC9F",
"a c #E1C391",
/* pixels */
"3333333333333333333333333333333333333333",
"3333333333333..3333333333..5333333333333",
"333333333355+.i+33333335+io+333333333333",
"33333333333..yi..333333..iy..33333333333",
"33333353533oapyp.355555opyia.53353553333",
"33333353333oyppy*o.o.oo*ypiy.55355333333",
"33333535335oypppy*oo..*yppiy.53335333333",
"33333355555o*#yyyyy##yyyyy.*.53353353333",
"3333355553ro#yyyyy=##=yyyyy#o56623533333",
"33333tr33rro>>::========::>>o6rt25353333",
"333353tr535o>*==========***>orrr%3533333",
"33335535335o>====#===#=#**=>.3t3%3353333",
"33335533535.**==#=#=#=#=#=**.55$53333333",
"33335333555.**=#=#=#=#=#===*.53335533333",
"33333555353o*===#=#=#=#*#=**.53353333333",
"33333353353o**=#=#=##.ooo=**.3333rr33333",
"333355353335.+==#=###o&#.=+.5535rr533333",
"3333333355355  ##==##oi+=#o5553553553333",
"3333355353555o ##==##>>#p#.5533335533333",
"3333333355558 ==##==*pp*=p.5333535553333",
"3333333335r8+ ##====#pp#*..3353353533333",
"333335535rr8 #<pyp##=pp*##. 355333533333",
"333353335r38.-<yp#==+>:+**# 335335333333",
"333333t35359o-1pyyio **  --.335335353333",
"333333tr3559o--ypiy.i>>p -- 53r535333333",
"3333533r5359o-<<<<1.p>ppo-1 5tt333533333",
"333335555359.--<<<<.ppppo1- 3r33tr353333",
"333353353339.*##<<<apa.+1-1o535rr5553333",
"333353355339.#=1<<<papa;---o553335553333",
"333353333530.-1;-1-a,a,;##=o333353353333",
"33333556666eo1;;;;a,a,aa-=#o333353553333",
"3333336rt5$e.-;,,--====..--o355333333333",
"333335665t$9o--,,--88899o--o333553335533",
"3333355533598.o<< 889899o<<o355356633533",
"33333333333588o<< 999999 ##.66636rt65533",
"33335333555388 ##.8rt5998 o0rr5$rrrr6533",
"33333333333358o## wt5339888065r$r3%%%333",
"33333333333359  o93553335533555535353333",
"3333333333333988993533333335535555555533",
"3333333333333333333333333333533333333333"
};
