/* XPM */
static char *f7087ed0d4144cf2cdf52f332a0f1637h1SSDUFKrsGqJNKO[] = {
/* columns rows colors chars-per-pixel */
"40 40 38 1 ",
"  c #030404",
". c #050705",
"X c #060705",
"o c #050606",
"O c #050707",
"+ c #060606",
"@ c #232417",
"# c #232418",
"$ c #00685A",
"% c #00695A",
"& c #625945",
"* c #625A45",
"= c #7D5A45",
"- c #7A6B4A",
"; c #40746D",
": c #977765",
"> c #977865",
", c #008A5F",
"< c #00A25A",
"1 c #00A35A",
"2 c #00A35B",
"3 c #008A60",
"4 c #008B60",
"5 c #40916D",
"6 c #40926D",
"7 c #408570",
"8 c #408670",
"9 c #40A361",
"0 c #40A461",
"q c #00C642",
"w c #00C743",
"e c #93866E",
"r c #93876E",
"t c #CBBC9F",
"y c #E1C390",
"u c #E1C391",
"i c #E7E3E3",
"p c #E7E4E3",
/* pixels */
"<<<<<<<<<<<<<<<<<<<<<<<++++<<<<<<<<<<<<<",
"<<<<<<<<<<<<<<<<<<<<<<+*#*+<<<<<<<<<<<<<",
"<<<<<<<<<<<<<<<<<<<<<+tt**+<<<<<<<<<<<<<",
"<<<<<<<<<<<<<<<<<<<<+--t++<<<<<<<<<<<<<<",
"<<<<<<2<2<<<2<<2<<<+tt-+22<<22<<2<22<<<<",
"<<<<<<2<<<<2ww<22q2+ttX<222<222<22<<<<<<",
"<<<<<2<2<<2<2wq2qq++-tXq22<<22<<<2<<<<<<",
"<<<<<<22<2<2<22<q5+*--+++2<<<2<<2<<2<<<<",
"<<<<<2222<qw<<2<25+#**+++++2<244,22<<<<<",
"<<<<<wq<<qw22++++++###++++X42,qq,2<2<<<<",
"<<<<2<wq<<2XOetuu++##++uuteX+qqq$22<<<<<",
"<<<<22<2<<5Xeetuu++++++uute++<q<$<<2<<<<",
"<<<<22<<255OeXeee**##**eee+e+<2$2<<<<<<<",
"<<<<2<<<255XeOX&***##****++e+2<<<22<<<<<",
"<<<<<222<65X&eeeeee**eeeeee*+2<<2<<<<<<<",
"<<<<<<2<<55X&eeeeee**eeeeee*+<<<<qq<<<<<",
"<<<<22<2255X&&&eee*ee*eee***+<<2qq2<<<<<",
"<<<<<<<<255O&ee&ee****ee*ee*+2<22<22<<<<",
"<<<<<22<255X&eeX+ee**ee++ee*+<<<<22<<<<<",
"<<<<<<<<255O&&&O+e*ee*e++***+<<2<222<<<<",
"<<<<2<<<550X&eeX+ee**ee++ee*++<<2<2<<<<<",
"<<<<<22<509OX&eO+eeeeee++e*+#+2<<<2<<<<<",
"<<<<2<<<59X&#O&ee:itti:ee*+#*+2<<2<<<<<<",
"<<<<<<w<55O&&#Xepipttpiie+#**+2<<2<2<<<<",
"<<<<<<wq55Xe&&OXO:peei:+XX&&eOq2<2<<<<<<",
"<<<<2<<q55OeeXXOOXOX+++OXOXeeXw<<<2<<<<<",
"<<<<<222255XO&&#&&&&&&**&#&XXq<<wq<2<<<<",
"<<<<2<<2255OX&#&#&&&&&**#&#XO<2qq222<<<<",
"<<<<2<<2255XO&#&#&******#&#oX2<<<222<<<<",
"<<<<2<<<555XX&e==OO*&eeeee&oo<<<2<<2<<<<",
"<<<<<224477XXee==OOteteeeeeX<<<22<22<<<<",
"<<<<<<4qq<;9Oee==XXXoXO##OO2<<2<<<<<<<<<",
"<<<<<2442w;5Xee=:XO555+##O<<<<<22<<<22<<",
"<<<<<222<<55Xee:=O5555+==+2<<22<2442<2<<",
"<<<<<<<<<<<55Xe==X5<55X==+22444<4qq422<<",
"<<<<2<<<222<55O=:X<qw55O+<<4qq<$qqqq,2<<",
"<<<<<<<<<<<<25X>:Xqq<<555<<442q$q<$$$2<<",
"<<<<<<<<<<<<<5O>: <<<<<<<<<<2222<2<<2<<<",
"<<<<<<<<<<<<<5 :: <2<<<<<<<22222222222<<",
"<<<<<<<<<<<<<55 O5<<<<<<<<<<<<<<<<<<<<<<"
};
