/* XPM */
static char *result[] = {
/* columns rows colors chars-per-pixel */
"40 40 43 1 ",
"  c #030503",
". c #030404",
"X c #050404",
"o c #040505",
"O c #050705",
"+ c #060705",
"@ c #050606",
"# c #050707",
"$ c #060606",
"% c #232417",
"& c #232418",
"* c #3F4140",
"= c #00685A",
"- c #00695A",
"; c #625945",
": c #625A45",
"> c #7D5945",
", c #7D5A45",
"< c #7A6B4A",
"1 c #40746D",
"2 c #977765",
"3 c #977865",
"4 c #008A5F",
"5 c #00A25A",
"6 c #00A35A",
"7 c #00A35B",
"8 c #008A60",
"9 c #008B60",
"0 c #40916D",
"q c #40926D",
"w c #408570",
"e c #408670",
"r c #40A361",
"t c #40A461",
"y c #00C642",
"u c #00C742",
"i c #00C743",
"p c #93866E",
"a c #93876E",
"s c #CBBB9F",
"d c #CBBC9F",
"f c #E1C391",
"g c #E7E3E3",
/* pixels */
"5555555555555555555555555555555555555555",
"5555555555555555555555555555555555555555",
"5555555555555555555555555555555555555555",
"5555555555555555555555555555555555555555",
"5555577575557557555775557755775575775555",
"555555755557ii677y757yy57775777577555555",
"5555565655757OO$yy5577iy7655775557555555",
"5555557767575@:$y75557575755575575575555",
"5555567775yi@pp:@556777578875788857$$555",
"55555iy55yi@:ddp:$5775557-i874yy87$::$55",
"555575iy75$pdffdp:$$5655885u4yyy-5#::$55",
"555577565$$pdffdpp:$$754iy55=5i5-5#dd$55",
"55557755$p:ppppdp::&$674877==57=75$<<$55",
"5555755$$:ppppp::::&&$577775575557$dd$55",
"555557$p:pp:::ppp::&&$755775576565$dd$55",
"555555$:pp:ppp:pp::&&&$5577555555y+<<$55",
"55557##:p$$pppp:::&:&&$755777557yy@<<$55",
"55555#:pp$$::::p:::&:&@@7757575775@<<$55",
"555##dppp$$pppp:p:::&:&@@775755557$::$55",
"555##:ppp$$p:::pp::&:&:&&@5565575$$<:$55",
"555$$g*pp::pppp:p::&&:&:&&@@@@@@@<<<<@55",
"555$$gg*paappppp:::;;&::::&:::&:@dd<d@55",
"55557$$:papppp;;&&&%:;::p:&:pp&p:@ddd@55",
"55555$+@:pppp;:%:;:%%:d:dp:&:pp:pd@ff@55",
"555555iO@@@@@&&&%;::;s;dp2d,2:d,,<d<$555",
"5555755y@@@@&@&&&::::p:pd:2,,ddd,d<f$555",
"555557777570@&@::::pp:pp:aap2,,23df<$555",
"555575575650@&@:::pppp:ppp:3p2,,3<df$555",
"55557557755qq&$::pppppppp:ppp,,222d$5555",
"55557555575ew&$::dd2d2ddp2dpd,22,<$75555",
"55555779498tr&&$,,,,p,$$$$,,p2,,2,$75555",
"5555658yy51 ..,22,,22X65&.X.,222,,X55555",
"555557887t1.2,2XXXXXXqqqq&&X.,,2,2X66755",
"5555577750X,,2,X0&&&q00q0&&&..2,22&XX755",
"5555555550X2&&Xqq&&&qqq0q&&&we.2>,3&&X55",
"555575557qX2&Xq7&&&rt0q000&&%rq.,3,32X55",
"5555555500XXX0ty&&%tq00000&&&qr1 ..oo.55",
"5555555550000q5iyq0qq0000005777q0q0qq555",
"5555555555000775655760000557767777777755",
"5555555555555555555555555555555555555555"
};
