/* XPM */
static char *dacc9e1364de45d7cd58251cb87b651cxWvVHcZNgh1gfpJ3[] = {
/* columns rows colors chars-per-pixel */
"40 40 38 1 ",
"  c #040505",
". c gray2",
"X c #040604",
"o c #050604",
"O c #090909",
"+ c #232418",
"@ c #00685A",
"# c #00695A",
"$ c #5A594E",
"% c #625945",
"& c #625A45",
"* c #7D5945",
"= c #7D5A45",
"- c #7A6B4A",
"; c #7A6C4A",
": c #40746D",
"> c #997448",
", c #977765",
"< c #977865",
"1 c #008A5F",
"2 c #00A25A",
"3 c #00A35A",
"4 c #00A35B",
"5 c #008A60",
"6 c #008B60",
"7 c #40916D",
"8 c #40926D",
"9 c #408570",
"0 c #408670",
"q c #40A361",
"w c #40A461",
"e c #00C642",
"r c #00C743",
"t c #93866E",
"y c #93876E",
"u c #CBBB9F",
"i c #CBBC9F",
"p c #E1C391",
/* pixels */
"2222222222222222222222222222222222222222",
"2222222222222..2222222222..4222222222222",
"222222222244O.uO22222224OuoO222222222222",
"22222222222..tu..222222..ut..22222222222",
"22222242422opiti.244444oitup.42242442222",
"22222242222otiit%o.o.oo%tiut.44244222222",
"22222424224otiiit%oo..%tiiut.42224222222",
"22222244444o%+ttttt++ttttt.%.42242242222",
"2222244442eo+tttty&++&tyttt+o45512422222",
"22222re22eeo;;--%&&&&&%&%-;;o5er14242222",
"222242re424o;%&&&&&&&&&&%%&;oeee#2422222",
"22224424224o;&&&&+&&&+&+%%&;.2r2#2242222",
"22224422424.%%&&+&+&+&+%+&%%.44@42222222",
"22224222444.%%&+&+&+&+&+&&&%.42224422222",
"22222444242o%&&&+&+&+%+&+&%%.42242222222",
"22222242242o%%&+&.ooo++&&&%%.2222ee22222",
"222244242224oO%%+.+$.++&&&Oo4424ee422222",
"2222222244244  ++&Oio++&&+o4442442442222",
"2222244242444o ++i+;;++&&+.4422224422222",
"2222222244247 %%+&&ii&&&&i.4422424442222",
"2222222224e7O ++&&+ii+&&%..2242242422222",
"222224424ee8 +,ut+%ii&+&%+. 244222422222",
"222242224q77.=,ti&O;;O&%%%+ 224224222222",
"222222r24788o=,ut. %&X <,=*.224224242222",
"222222re2888.*=ti i--u.<,== 42e424222222",
"2222422e4787.=,,,.ii-i.<,=, 2er222422222",
"222224444787.==,,.iiii.<,<= 2e22re242222",
"222242242878.%++,,O.pip===<o424ee4442222",
"222242244888.+&<,,,ipip=***o442224442222",
"222242224879.*<=*<*p>p>*++&o222242242222",
"22222445599wo<====p>p>pp*&+o222242442222",
"2222225er7:w..===**&&&.*>>o4244222222222",
"222224554r:8:.==..77887o>>.4222442244422",
"2222244422888o,,.788877.,,.2244245142422",
"2222222222248.++.888888.,, 455525er64422",
"22224222444287..842eq88.++.5ee4@eeee1422",
"22222222222277qq82er477 ++.554e@e2###222",
"222222222222442re424427.  72444424242222",
"2222222222222442222422777774424444444422",
"2222222222222222222222222222222222222222"
};
