/* XPM */
static char *result[] = {
/* columns rows colors chars-per-pixel */
"40 40 43 1 ",
"  c #050503",
". c #030404",
"X c #050404",
"o c #040505",
"O c #050705",
"+ c #060705",
"@ c #050606",
"# c #050707",
"$ c #060606",
"% c #050806",
"& c #232417",
"* c #232418",
"= c #3F4140",
"- c #00685A",
"; c #00695A",
": c #625945",
"> c #625A45",
", c #7D5945",
"< c #7D5A45",
"1 c #7A6B4A",
"2 c #7A6C4A",
"3 c #977765",
"4 c #977865",
"5 c #008A5F",
"6 c #00A25A",
"7 c #00A35A",
"8 c #00A35B",
"9 c #008A60",
"0 c #008B60",
"q c #40916D",
"w c #40926D",
"e c #408570",
"r c #40A361",
"t c #40A461",
"y c #00C642",
"u c #00C743",
"i c #93866E",
"p c #93876E",
"a c #CBBB9F",
"s c #CBBC9F",
"d c #E1C390",
"f c #E1C391",
"g c #E7E3E3",
/* pixels */
"6666666666666666666666666666666666666666",
"6666666666666666666666666666666666666666",
"6666666666666666666666666666666666666666",
"6666666666666666666666666666666666666666",
"6666688686668668666886668866886686886666",
"666666866668uu788y868yy68886888688666666",
"6666676766868uy8yy6688uy8$@@886668666666",
"6666668878686886y86668686$>@686686686666",
"6666$$8886yu668686678886@:ii@89996866666",
"666$>>+66yu888686868866$>iss>@yy98686666",
"666$>>%y8688686686686$$>isfdsp+y;6866666",
"666$ss#7668768886686$$>ipsffai+$;6686666",
"666$11$6868786668868$*>:isiiii>i$6666666",
"666$ss$688688866866$**>>>>iiiii>$$766666",
"666$ss$868686666888$**>>iii>>>ii>i$66666",
"666$11$66866886766$***>>ii>iii>ii>+66666",
"666$11@86668666666$**>*>>>iiii$$p>##6666",
"666$11@6886868668@@*>*>>>i>>>>$$ii>#6666",
"66q$>>$686886768@@*>*>>>i>iiii$$iiis##66",
"66q$>1$$8866666@**>*>*>>ii>>>i$$iii>##66",
"66q@1111@@O@@@@**>*>**>>i>iiii>>ii=g$$66",
"66q@s1ss@>&>>>*>>>>*:>>>>iiiiiiii=gg$$66",
"66q@sss@>p*ii>*:i>:>>****>>iiiiii>$$6666",
"66q@ffOsi>ii>*>ps:s>&&:>>*>>iiii>@$$6666",
"66qq$1s2<<s>3,s3pa>s:::>****@@O@@@666666",
"66qq$f1s<sss<<3>si>i>>>>***@*OO@@6866666",
"66qq$1fs33<<3iii>ii>ii>>>>O*@y66uy676666",
"66qq$fs13<<3i3>iii>iiii>>>O&@68yy8886666",
"66qqw$s333<<iii>iiiiiiii>>$*886668886666",
"666qwq$1<33,sis3iss3s3ss>>$*666686686666",
"66qqqw$,3,,4p,<$$$$<i<<<<$**666786886666",
"66qqwqX<<334<.X.*qwX33<<33<...8666666666",
"66qqqwX3<4,<.X**qqqqXXXXXX3<3.6886677866",
"66qqXX*33<3..***qqwww***qX<3<<X785986866",
"6qqX**3<<3.ww***wwwqw***wwX**3X69yu08866",
"6qqX33<3<.wq***wwwqrtq***qqX&4X-yyyy5866",
"6qq.oo...qqq**&rqqrtwq***qqeXX -y6;;-666",
"66qqqqqq666qqw6uy8688666666qwww868678666",
"6666666666666886766876666668878888888866",
"6666666666666666666666666666666666666666"
};
