/* XPM */
static char *b75d4372b1144cb1acffeedddcecc482wklzTffg13xfSYDl[] = {
/* columns rows colors chars-per-pixel */
"40 40 43 1 ",
"  c #030404",
". c #030504",
"X c #050404",
"o c #050705",
"O c #060705",
"+ c #050606",
"@ c #050707",
"# c #060606",
"$ c #050806",
"% c #232417",
"& c #232418",
"* c #3F4140",
"= c #00685A",
"- c #00695A",
"; c #625945",
": c #625A45",
"> c #7D5945",
", c #7D5A45",
"< c #7A6B4A",
"1 c #7A6C4A",
"2 c #977765",
"3 c #977865",
"4 c #008A5F",
"5 c #00A25A",
"6 c #00A35A",
"7 c #00A35B",
"8 c #008A60",
"9 c #008B60",
"0 c #40916D",
"q c #40926D",
"w c #408570",
"e c #408670",
"r c #40A361",
"t c #40A461",
"y c #00C642",
"u c #00C743",
"i c #93866E",
"p c #93876E",
"a c #CBBB9F",
"s c #CBBC9F",
"d c #E1C390",
"f c #E1C391",
"g c #E7E3E3",
/* pixels */
"5555555555555555555555555555555555555555",
"5555555555555555555555555555555555555555",
"5555555555555555555555555555555555555555",
"5555555555555555555555555555555555555555",
"5555557575557557555575557555575575775555",
"555555755557uu775u555uu57555577577555555",
"5555575755757uu5uu5577uu7#OO775557555555",
"5555557777575775u55557575#:O575575575555",
"5555##7575uu557575575555#:ii#79995555555",
"555O::$55uu577575757555#:iss:#uu97555555",
"555O::$u7557575575575#O:isffaiOu-5755555",
"555Oss#7557757775555##:iisffaiOO-5555555",
"555#<<#5757775557757O&:;iaiiii:i#5555555",
"555#aa#577577755755#&&::::iiiii:##555555",
"555#as#557575555777#&&::iii:::ii:p#55555",
"555O<<#55755775755#&&&::ii:iii:ip:@55555",
"555#<<#55557555555#&&:&:::iiii##i:#@5555",
"555#<<#5775755557##&:&:::i::::##ii:#5555",
"550#::#575775755##&:&:::i:iiii##iiia@@55",
"550#:<OO7755555@&&:&:&::ii:::i##iii:@@55",
"55q#<<<<##o@###&&:&:&&::i:iiii::ii*g##55",
"550#s1ss#:&:::&::::&:::::iiiiiiii*gg##55",
"550#sss+:i&ii:&:i::::&&&&::iiiiii:##5555",
"550@ffosi:ii:&:is:a:&&:::&::iiii:###5555",
"5500#<a<>>s:3>s2ia:a::::&&&&++++OO555555",
"5500#f<a>sss,>3:si:i::::&&&+&+o+O5555555",
"5550#<fs33>>3iii:ii:ii::::@&Ou55uu575555",
"5550#fs<3,>3i3:iii:iiii:::+&O55uu7775555",
"555qq#a232>>iii:iiiiiiii::#&O55557775555",
"555qqq#2>33>aia2iss3s3ss::#&O&5575575555",
"5555qq#>3>>3i>######p>,,>#&&>&5575775555",
"5555qq#>>3>3>>#qqqq#,,,>####>>&555555555",
"55555q#22>>>##qq000#>>##qqq5#>>&55557755",
"55555q#>>2>##qqq00q#>>##qqq55#>3#9975755",
"555500#2>3#qqqqqqqqO32#55qqq99#&2Ou95755",
"5555q0#&3>##qqqqqq0O32#555qwru5OOOuu9755",
"555500#&>>22 qrr00r &2 5555ww0u-u5---555",
"555500#&&2>2 55uuq0 &2 55555007755575555",
"5555000XO + 0555550q  555555777755577755",
"55555000000055555550q5555555755555555555"
};
