/* XPM */
static char *result[] = {
/* columns rows colors chars-per-pixel */
"40 40 40 1 ",
"  c #030503",
". c #030404",
"X c #050404",
"o c #050705",
"O c #060705",
"+ c #050606",
"@ c #050707",
"# c #060606",
"$ c #232417",
"% c #232418",
"& c #3F4140",
"* c #00685A",
"= c #00695A",
"- c #625945",
"; c #625A45",
": c #7D5945",
"> c #7D5A45",
", c #7A6B4A",
"< c #977765",
"1 c #977865",
"2 c #008A5F",
"3 c #00A25A",
"4 c #00A35A",
"5 c #00A35B",
"6 c #008A60",
"7 c #008B60",
"8 c #40916D",
"9 c #40926D",
"0 c #408570",
"q c #408670",
"w c #40A361",
"e c #00C642",
"r c #00C742",
"t c #00C743",
"y c #93866E",
"u c #93876E",
"i c #CBBB9F",
"p c #CBBC9F",
"a c #E1C391",
"s c #E7E3E3",
/* pixels */
"3333333333333333333333333333333333333333",
"3333333333333333333333333333333333333333",
"3333333333333333333333333333333333333333",
"3333333333333333333333333333333333333333",
"3333355353335335333553335533553353553333",
"333333533335tt455e535ee35553555355333333",
"3333343433535oo#ee3355te5433553335333333",
"3333335545353+;#e53335353533353353353333",
"3333345553et+yy;+334555356653566635##333",
"33333te33et+;ppy;#3553335=t652ee65#;;#33",
"333353te53#ypaapy;##3433663r2eee=3@;;#33",
"333355343##ypaapyy;##532te33*3t3=3@pp#33",
"33335533#y;yyyypy;;%#452655**35*53#,,#33",
"3333533##;yyyyy;;;;%%#355553353335#pp#33",
"333335#y;yy;;;yyy;;%%#533553354343#pp#33",
"333333#;yy;yyy;yy;;%%%#3355333333eO,,#33",
"33335@@;y##yyyy;;;%;%%#533555335ee+,,#33",
"33333@;yy##;;;;y;;;%;%++5535353553+,,#33",
"333@@pyyy##yyyy;y;;;%;%++553533335#;;#33",
"333@@;yyy##y;;;yy;;%;%;%%+3343353##,;#33",
"333##s&yy;;yyyy;y;;%%;%;%%+++++++,,,,+33",
"333##ss&yuuyyyyy;;;--%;;;;%;;;%;+pp,p+33",
"33335##;yuyyyy--%%%$;-;;y;%;yy%y;+ppp+33",
"33333#O+;yyyy-;$;-;$$;p;py;%;yy;yp+aa+33",
"333333to+++++%%%$-;;-i-py<p><;p>>,p,#333",
"3333533e++++%+%%%;;;;y;yp;<>>ppp>p,a#333",
"333335555353+%+;;;;yy;yy;uuy<>><1pa,#333",
"333353353433+%+;;;yyyy;yyy;1y<>>1,pa#333",
"333353355335+%#;;yyyyyyyy;yyy>><<<p#3333",
"33335333353%#%#;;pp<p<ppy<pyp><<><#53333",
"33333557276$>%%#>>>>y######>y<>><>#53333",
"3333436ee8%>>####>>>>#9898#>><><>>#33333",
"333335669$:>#9988##>>#99988##>>><<#44533",
"33333559#<>#89988##>>#898998##><>:#53533",
"3333338#<%#9988999#<<#9899990q#<:1O75533",
"3333538###93989999#11#98888qwO#:1$Oe2533",
"33333388883333tw88 1%.888880.<1:>%#=*333",
"333333383333353tw9.<%.333338.<><%%#45333",
"3333333333333553488..83333399..XXX555533",
"3333333333333333338883333333888883333333"
};
