/* XPM */
static char *_045ee08e45f4efd8b86bb60050dd0e4Rnrr3O2yOCyoM1DK[] = {
/* columns rows colors chars-per-pixel */
"40 40 36 1 ",
"  c #030404",
". c #050705",
"X c #060705",
"o c #050606",
"O c #050707",
"+ c #060606",
"@ c #232418",
"# c #00685A",
"$ c #00695A",
"% c #625945",
"& c #625A45",
"* c #7D5A45",
"= c #7A6B4A",
"- c #40746D",
"; c #977765",
": c #008A5F",
"> c #00A25A",
", c #00A35A",
"< c #00A35B",
"1 c #008A60",
"2 c #008B60",
"3 c #40916D",
"4 c #40926D",
"5 c #408570",
"6 c #408670",
"7 c #40A361",
"8 c #40A461",
"9 c #00C642",
"0 c #00C743",
"q c #93866E",
"w c #93876E",
"e c #CBBC9F",
"r c #E1C390",
"t c #E1C391",
"y c #E7E3E3",
"u c #E7E4E3",
/* pixels */
">>>>>>>>>>>>>++++>>>>>>>>>>>>>>>>>>>>>>>",
">>>>>>>>>>>>>+&@&+>>>>>>>>>>>>>>>>>>>>>>",
">>>>>>>>>>>>>+&&ee+>>>>>>>>>>>>>>>>>>>>>",
">>>>>>>>>>>>>>++e==+>>>>>>>>>>>>>>>>>>>>",
">>>>>><><>>><>>3+=ee+>>><<>><<>><><<>>>>",
">>>>>><>>>><00<33Xee+99><<<><<<><<>>>>>>",
">>>>><><>><><09<8Xe=++09<<>><<>>><>>>>>>",
">>>>>><<<<><><<+X+==&+><><>>><>><>><>>>>",
">>>>><<<<>90>+++++&&@+<><:2>>>222><>>>>>",
">>>>>09>>90<<+++++@@@+++++X:<299:<><>>>>",
">>>><>09>><X+qett++@@++tteqX+999#<<>>>>>",
">>>><<><>>3XOqett++++++tteqq+>0>#>><>>>>",
">>>><<>><>3OqXqqq&&@@&&qqq+q+><#<>>>>>>>",
">>>><>>><<3XqOX%&&&@@&&&&++q+<>>><<>>>>>",
">>>>><<<>33X%qqqqqq&&qqqqqq&+<>>>>>>>>>>",
">>>>>><>>33X%qqqqqq&&qqqqqq&+>>>>99>>>>>",
">>>><<><>33O%%%qqq&qq&qqq&&&+>><99<>>>>>",
">>>>>>>><33X%qq%qq&&&&qq&qq&+<><<><<>>>>",
">>>>><<><33O&wqO+qq&&qq++qq&+>>>><<>>>>>",
">>>>>>>>333X&%%X+q&qq&q++&&&+>><><<<>>>>",
">>>><>>>33XX%qqO+qq&&qq+Xqq%X<<><><>>>>>",
">>>>><<>48X@O%qX+qqqqqq+Oq%OX<<>>><>>>>>",
">>>><>>>38+&@X%qq;yeey;qq%X@%O<>><>>>>>>",
">>>>>>0<33+&%@XqyyueeuyyqX@%%X<>><><>>>>",
">>>>>>0933Oq%%XOo;uqqy;+Oo%%qO9<><>>>>>>",
">>>><>>933XqqOOXoOXO+++XooXqqX0>>><>>>>>",
">>>>><<<33Oq%qq%%q%%%%&qqqq%qX>>09>>>>>>",
">>>><>><33Xq%q%wq%%q%q&qq%q%qO<99<<<>>>>",
">>>><>><33X%q%qqq%q%q&q&qq%q%O>>><<<>>>>",
">>>><>>>333XX%qqqqw&&OO**q%XX<>><>><>>>>",
">>>>><<22558XqqqqqeqeOO**qqOX>>><><<>>>>",
">>>><>299<-83OO@@OXXOXO**qqX><<>>>>>>>>>",
">>>>><22<0#3-3O@@+444++;*qq+>>><<>>>><>>",
">>>>><><>><<33+**+4444+*;qq+><<><22>><>>",
">>>>>>>>>>><<3+**+<>44+**qX>222>2902><>>",
">>>><>>><<<><33++4>974+;*X>:99<#99992<>>",
">>>>>>>>>>>><3884>9033+;;X>22<9#9>###>>>",
">>>>>>>>>>>>><>09<><33 ;; >><<<<><>><>>>",
">>>>>>>>>>>>><<><>><43 ;; ><<><<<<<<<<>>",
">>>>>>>>>>>>>>>>>>><333  3>>>>>>>>>>>>>>"
};
