/* XPM */
static char *e854ab178dd74a07bff913ca3fdb10a5WY2WnbH60IqonYwz[] = {
/* columns rows colors chars-per-pixel */
"32 32 4 1 ",
"  c #18685B",
". c #30A15F",
"X c #1F8962",
"o c #5AC54F",
/* pixels */
"................................",
"........oo...o...oo.............",
".........oo.oo....oo............",
"............o...................",
"......oo.............XX...XXX...",
".oo..oo.............. oX.XooX...",
"..oo................XX.oXooo ...",
"...................Xoo.. .o. ...",
"...................XX..  .. ....",
"................................",
"................................",
".............................oo.",
"............................oo..",
"................................",
"................................",
"................................",
"......o.........................",
".....oo........XX...............",
".....o....XXX.XooX..............",
"..o......Xoo. ooooX.............",
"..oo.....XX.o o.   .......o.....",
"...o.....................oo.....",
".....................oo..o..oo..",
"......................oo...oo...",
"................................",
".......XXX......................",
"...XXXXoo ......................",
"..Xoo. o. ......................",
"..XX.o . .......................",
"................................",
"................................",
"................................"
};
